src/assets/call-logo.svg

<svg width="20" height="19" viewBox="0 0 20 19" fill="none" xmlns="http://www.w3.org/2000/svg">
<path d="M1.97405 1.14082C1.83945 1.14492 1.70709 1.17427 1.58481 1.22715C1.46253 1.28003 1.35282 1.35536 1.26217 1.44867C1.17153 1.54199 1.10179 1.65139 1.05708 1.77041C1.01238 1.88943 0.993616 2.01564 1.00191 2.14157C1.1364 4.30147 1.7704 9.57161 4.80595 12.8583C8.44092 16.8181 13.1748 18.1824 18.0317 17.9808C18.292 17.9662 18.5368 17.8596 18.7165 17.6826C18.8962 17.5055 18.9975 17.2712 19 17.0268V13.5674C18.997 13.2446 18.8783 12.9322 18.663 12.6802C18.4476 12.4282 18.1482 12.2513 17.8127 12.1779L15.3804 11.6739C15.0796 11.6138 14.7664 11.6397 14.4815 11.7481C14.1965 11.8566 13.9528 12.0427 13.7819 12.2823L13.244 13.0454C13.1946 13.1153 13.1208 13.1668 13.0352 13.1911C12.9496 13.2154 12.8577 13.211 12.7752 13.1786C11.5379 12.6783 6.60806 10.5184 6.06628 6.87534C6.05566 6.80498 6.06751 6.73326 6.10033 6.6692C6.13316 6.60514 6.18548 6.55161 6.25071 6.51536L7.2267 5.95739C7.4944 5.80196 7.70467 5.57324 7.82906 5.30218C7.95345 5.03112 7.98596 4.7308 7.92218 4.44186L7.38808 2.12358C7.31 1.79875 7.11418 1.50932 6.83395 1.30454C6.55371 1.09976 6.20639 0.992295 5.8511 1.00043L1.97405 1.14082Z" stroke="#F6B426"/>
</svg>

<svg xmlns="http://www.w3.org/2000/svg" width="20" height="19" fill="none"><path stroke="#F6B426" d="M1.974 1.14a1.063 1.063 0 0 0-.39.087 1.006 1.006 0 0 0-.322.222.933.933 0 0 0-.205.321.888.888 0 0 0-.055.372c.134 2.16.768 7.43 3.804 10.716 3.635 3.96 8.369 5.324 13.226 5.123a1.06 1.06 0 0 0 .684-.298.934.934 0 0 0 .284-.656v-3.46a1.385 1.385 0 0 0-.337-.887 1.553 1.553 0 0 0-.85-.502l-2.433-.504c-.3-.06-.614-.034-.899.074a1.521 1.521 0 0 0-.7.534l-.537.763a.383.383 0 0 1-.209.146.408.408 0 0 1-.26-.012c-1.237-.5-6.167-2.66-6.709-6.304A.34.34 0 0 1 6.1 6.67a.37.37 0 0 1 .15-.154l.977-.558c.267-.155.478-.384.602-.655.124-.27.157-.571.093-.86l-.534-2.318a1.433 1.433 0 0 0-.554-.82A1.606 1.606 0 0 0 5.851 1l-3.877.14Z"/></svg>
